X:5
T: Return to Corofin
C: BB
R: reel
Q: 350
M: 4/4
L: 1/8
K: D
"D"FGAB AFDF | "G"GABc "D"d3 A | "Bm"F2 BF dFBF | "Em"EGBd "A"cAGE |
"D"FGAB AFDF | "G"GABc "D"d3 e| "Bm"fd (3dcd "Em"edBd | "A"cAGE "D"FD D2 :|
"D"fdfa "G"gb (3b^ab | "Bm"afdB "A"BA A2 | "D"FGAB AFDF | "G"GABc "D"d3 e |
"D"fdfa "G"gb (3b^ab |"Bm"afdB "A"BA A2 |"G"Bgge "Em"cded |"A7"cAGE "D"FD D2 :|
